assets/images/login-connectors/cosmostation.svg

<svg width="100" height="100" viewBox="0 0 100 100" fill="none" xmlns="http://www.w3.org/2000/svg">
<g clip-path="url(#clip0_5425_10637)">
<circle cx="50" cy="50.2787" r="50" fill="white"/>
<path d="M68.5532 18.0413H41.8338C41.1681 18.0419 40.5143 18.2174 39.9377 18.5502C39.3611 18.8829 38.8821 19.3613 38.5485 19.9374L25.1886 43.0754C24.8546 43.6515 24.6787 44.3057 24.6787 44.9716C24.6787 45.6375 24.8546 46.2917 25.1886 46.8678L38.5485 70.0059L45.1183 66.2136L32.8598 44.9717L44.0265 25.6259H66.37L78.638 46.8676L85.2078 43.0753L71.8381 19.9374C71.5054 19.3606 71.0266 18.8816 70.45 18.5488C69.8733 18.2159 69.2191 18.0408 68.5532 18.0413Z" fill="#9C6CFF"/>
<path d="M61.3704 30.6158L54.8005 34.4082L67.0687 55.65L55.9019 74.9956H33.5588L21.2908 53.7538L14.7209 57.5463L28.0808 80.6843C28.4137 81.2609 28.8926 81.7397 29.4692 82.0725C30.0458 82.4054 30.6999 82.5806 31.3657 82.5804H58.0855C58.7512 82.5797 59.4049 82.4042 59.9814 82.0714C60.5579 81.7387 61.0369 81.2603 61.3704 80.6843L74.7303 57.5463C75.0643 56.9702 75.2402 56.316 75.2402 55.6501C75.2402 54.9842 75.0643 54.3301 74.7303 53.7539L61.3704 30.6158Z" fill="#05D2DD"/>
</g>
<defs>
<clipPath id="clip0_5425_10637">
<rect width="100" height="100" fill="white"/>
</clipPath>
</defs>
</svg>

<svg xmlns="http://www.w3.org/2000/svg" fill="none" viewBox="0 0 100 100">
  <circle cx="50" cy="50" r="50" fill="#fff"/>
  <path fill="#9C6CFF" d="M68.553 18.041h-26.72a3.8 3.8 0 0 0-3.285 1.896l-13.36 23.138a3.78 3.78 0 0 0 0 3.793l13.36 23.138 6.57-3.792L32.86 44.972l11.166-19.346H66.37l12.268 21.242 6.57-3.793-13.37-23.138a3.79 3.79 0 0 0-3.285-1.896Z"/>
  <path fill="#05D2DD" d="m61.37 30.616-6.57 3.792L67.07 55.65 55.902 74.996H33.559L21.29 53.754l-6.57 3.792 13.36 23.138a3.792 3.792 0 0 0 3.285 1.896h26.72a3.8 3.8 0 0 0 3.284-1.896l13.36-23.138a3.78 3.78 0 0 0 0-3.792L61.37 30.616Z"/>
</svg>
